;FLAVOR:Marlin
;TIME:1466
;Filament used: 0.387118m
;Layer height: 0.12
;MINX:24.823
;MINY:28.598
;MINZ:0.12
;MAXX:46.432
;MAXY:71.198
;MAXZ:6.96
;Generated with Cura_SteamEngine 4.13.1
M140 S50
M105
M190 S50
M104 S200
M105
M109 S200
M82 ;absolute extrusion mode
; Ender 3 Custom Start G-code
G92 E0 ; Reset Extruder
G28 ; Home all axes
G1 Z2.0 F3000 ; Move Z Axis up little to prevent scratching of Heat Bed
G1 X0.1 Y20 Z0.3 F5000.0 ; Move to start position
G1 X0.1 Y200.0 Z0.3 F1500.0 E15 ; Draw the first line
G1 X0.4 Y200.0 Z0.3 F5000.0 ; Move to side a little
G1 X0.4 Y20 Z0.3 F1500.0 E30 ; Draw the second line
G92 E0 ; Reset Extruder
G1 Z2.0 F3000 ; Move Z Axis up little to prevent scratching of Heat Bed
G1 X5 Y20 Z0.3 F5000.0 ; Move over to prevent blob squish
G92 E0
G92 E0
G1 F2700 E-5
;LAYER_COUNT:58
;LAYER:0
M107
G0 F6000 X27.246 Y30.747 Z0.12
;TYPE:SKIRT
G1 F2700 E0
G1 F1200 X27.845 Y30.233 E0.01575
G1 X28.493 Y29.781 E0.03152
G1 X29.183 Y29.397 E0.04728
G1 X29.909 Y29.085 E0.06305
G1 X30.662 Y28.849 E0.07879
G1 X31.435 Y28.689 E0.09455
G1 X32.221 Y28.608 E0.11032
G1 X32.623 Y28.598 E0.11834
G1 X38.632 Y28.598 E0.23826
G1 X39.421 Y28.638 E0.25402
G1 X40.201 Y28.757 E0.26977
G1 X40.966 Y28.955 E0.28554
G1 X41.706 Y29.229 E0.30128
G1 X42.415 Y29.577 E0.31705
G1 X43.086 Y29.995 E0.33282
G1 X43.71 Y30.478 E0.34857
G1 X44.283 Y31.021 E0.36432
G1 X44.798 Y31.62 E0.38009
G1 X45.249 Y32.268 E0.39584
G1 X45.633 Y32.959 E0.41162
G1 X45.945 Y33.684 E0.42737
G1 X46.182 Y34.437 E0.44312
G1 X46.341 Y35.211 E0.45889
G1 X46.422 Y35.996 E0.47464
G1 X46.432 Y36.398 E0.48266
G1 X46.432 Y63.398 E1.02148
G1 X46.392 Y64.187 E1.03724
G1 X46.273 Y64.967 E1.05299
G1 X46.075 Y65.732 E1.06876
G1 X45.801 Y66.472 E1.08451
G1 X45.453 Y67.181 E1.10027
G1 X45.035 Y67.852 E1.11604
G1 X44.552 Y68.476 E1.13179
G1 X44.009 Y69.049 E1.14755
G1 X43.41 Y69.564 E1.16331
G1 X42.762 Y70.015 E1.17907
G1 X42.071 Y70.399 E1.19484
G1 X41.346 Y70.711 E1.21059
G1 X40.593 Y70.948 E1.22635
G1 X39.819 Y71.107 E1.24211
G1 X39.034 Y71.188 E1.25786
G1 X38.632 Y71.198 E1.26589
G1 X32.624 Y71.198 E1.38578
G1 X31.835 Y71.158 E1.40155
G1 X31.055 Y71.039 E1.4173
G1 X30.29 Y70.841 E1.43306
G1 X29.55 Y70.567 E1.44881
G1 X28.841 Y70.219 E1.46457
G1 X28.17 Y69.801 E1.48035
G1 X27.546 Y69.318 E1.4961
G1 X26.973 Y68.775 E1.51185
G1 X26.458 Y68.176 E1.52761
G1 X26.007 Y67.528 E1.54337
G1 X25.623 Y66.837 E1.55915
G1 X25.311 Y66.112 E1.5749
G1 X25.074 Y65.359 E1.59065
G1 X24.915 Y64.585 E1.60642
G1 X24.834 Y63.8 E1.62217
G1 X24.824 Y63.398 E1.63019
G1 X24.823 Y36.398 E2.16901
G1 X24.863 Y35.61 E2.18475
G1 X24.982 Y34.829 E2.20052
G1 X25.18 Y34.065 E2.21627
G1 X25.454 Y33.324 E2.23203
G1 X25.802 Y32.615 E2.2478
G1 X26.219 Y31.945 E2.26354
G1 X26.702 Y31.32 E2.27931
G1 X27.246 Y30.747 E2.29507
G0 F6000 X27.639 Y30.928
G1 F1200 X28.234 Y30.44 E2.31043
G1 X28.876 Y30.017 E2.32577
G1 X29.558 Y29.662 E2.34112
G1 X30.274 Y29.381 E2.35647
G1 X31.015 Y29.175 E2.37182
G1 X31.774 Y29.047 E2.38718
G1 X32.623 Y28.998 E2.40415
G1 X38.632 Y28.998 E2.52406
G1 X39.4 Y29.038 E2.53941
G1 X40.16 Y29.157 E2.55476
G1 X40.903 Y29.355 E2.57011
G1 X41.622 Y29.629 E2.58546
G1 X42.308 Y29.976 E2.6008
G1 X42.955 Y30.392 E2.61615
G1 X43.555 Y30.873 E2.6315
G1 X44.102 Y31.414 E2.64685
G1 X44.59 Y32.009 E2.66221
G1 X45.013 Y32.651 E2.67755
G1 X45.368 Y33.334 E2.69291
G1 X45.649 Y34.049 E2.70824
G1 X45.855 Y34.791 E2.72361
G1 X45.983 Y35.549 E2.73895
G1 X46.032 Y36.398 E2.75592
G1 X46.032 Y63.398 E3.29474
G1 X45.992 Y64.166 E3.31008
G1 X45.873 Y64.926 E3.32544
G1 X45.675 Y65.669 E3.34078
G1 X45.401 Y66.388 E3.35614
G1 X45.054 Y67.074 E3.37148
G1 X44.638 Y67.721 E3.38683
G1 X44.157 Y68.321 E3.40217
G1 X43.616 Y68.868 E3.41753
G1 X43.021 Y69.356 E3.43288
G1 X42.379 Y69.779 E3.44823
G1 X41.696 Y70.134 E3.46359
G1 X40.981 Y70.415 E3.47892
G1 X40.239 Y70.621 E3.49429
G1 X39.481 Y70.749 E3.50963
G1 X38.632 Y70.798 E3.5266
G1 X32.624 Y70.798 E3.64649
G1 X31.856 Y70.758 E3.66184
G1 X31.096 Y70.639 E3.67719
G1 X30.353 Y70.441 E3.69254
G1 X29.634 Y70.167 E3.70789
G1 X28.948 Y69.82 E3.72323
G1 X28.301 Y69.404 E3.73858
G1 X27.701 Y68.923 E3.75393
G1 X27.154 Y68.382 E3.76928
G1 X26.666 Y67.787 E3.78464
G1 X26.243 Y67.145 E3.79998
G1 X25.888 Y66.462 E3.81534
G1 X25.607 Y65.747 E3.83067
G1 X25.401 Y65.005 E3.84604
G1 X25.273 Y64.247 E3.86138
G1 X25.224 Y63.398 E3.87835
G1 X25.223 Y36.398 E4.41717
G1 X25.263 Y35.63 E4.43252
G1 X25.382 Y34.87 E4.44787
G1 X25.58 Y34.127 E4.46321
G1 X25.854 Y33.408 E4.47857
G1 X26.201 Y32.722 E4.49391
G1 X26.617 Y32.075 E4.50926
G1 X27.098 Y31.475 E4.5246
G1 X27.639 Y30.928 E4.53996
G0 F6000 X28.031 Y31.115
G1 F1200 X28.621 Y30.655 E4.55489
G1 X29.257 Y30.261 E4.56982
G1 X29.931 Y29.936 E4.58475
G1 X30.636 Y29.686 E4.59968
G1 X31.364 Y29.512 E4.61461
G1 X32.106 Y29.417 E4.62954
G1 X32.623 Y29.398 E4.63987
G1 X38.632 Y29.398 E4.75978
G1 X39.379 Y29.438 E4.77471
G1 X40.117 Y29.557 E4.78963
G1 X40.839 Y29.755 E4.80457
G1 X41.535 Y30.028 E4.81949
G1 X42.198 Y30.375 E4.83442
G1 X42.821 Y30.79 E4.84936
G1 X43.395 Y31.269 E4.86428
G1 X43.916 Y31.806 E4.87921
G1 X44.375 Y32.396 E4.89413
G1 X44.77 Y33.032 E4.90907
G1 X45.094 Y33.706 E4.92399
G1 X45.344 Y34.411 E4.93892
G1 X45.518 Y35.139 E4.95386
G1 X45.613 Y35.881 E4.96879
G1 X45.632 Y36.398 E4.97911
G1 X45.632 Y63.398 E5.51793
G1 X45.592 Y64.145 E5.53285
G1 X45.473 Y64.883 E5.54777
G1 X45.275 Y65.605 E5.56271
G1 X45.002 Y66.301 E5.57763
G1 X44.655 Y66.964 E5.59257
G1 X44.24 Y67.587 E5.6075
G1 X43.761 Y68.161 E5.62242
G1 X43.224 Y68.682 E5.63735
G1 X42.634 Y69.141 E5.65227
G1 X41.998 Y69.536 E5.66721
G1 X41.324 Y69.86 E5.68214
G1 X40.619 Y70.11 E5.69706
G1 X39.891 Y70.284 E5.712
G1 X39.149 Y70.379 E5.72693
G1 X38.632 Y70.398 E5.73725
G1 X32.624 Y70.398 E5.85715
G1 X31.877 Y70.358 E5.87208
G1 X31.139 Y70.239 E5.887
G1 X30.417 Y70.041 E5.90194
G1 X29.721 Y69.768 E5.91686
G1 X29.058 Y69.421 E5.93179
G1 X28.435 Y69.006 E5.94673
G1 X27.861 Y68.527 E5.96165
G1 X27.34 Y67.99 E5.97658
G1 X26.881 Y67.4 E5.9915
G1 X26.486 Y66.764 E6.00644
G1 X26.162 Y66.09 E6.02136
G1 X25.912 Y65.385 E6.03629
G1 X25.738 Y64.657 E6.05123
G1 X25.643 Y63.915 E6.06615
G1 X25.624 Y63.398 E6.07648
G1 X25.623 Y36.398 E6.61529
G1 X25.663 Y35.651 E6.63022
G1 X25.782 Y34.913 E6.64514
G1 X25.98 Y34.191 E6.66008
G1 X26.253 Y33.495 E6.675
G1 X26.6 Y32.832 E6.68993
G1 X27.014 Y32.209 E6.70486
G1 X27.493 Y31.635 E6.71978
G1 X28.031 Y31.115 E6.73471
G0 F6000 X27.888 Y31.8
G1 F1200 X28.422 Y31.308 E6.7492
G1 X29.007 Y30.877 E6.7637
G1 X29.636 Y30.513 E6.7782
G1 X30.3 Y30.22 E6.79269
G1 X30.993 Y30.002 E6.80718
G1 X31.706 Y29.862 E6.82169
G1 X32.623 Y29.798 E6.84003
G1 X38.632 Y29.798 E6.95995
G1 X39.357 Y29.838 E6.97444
G1 X40.074 Y29.957 E6.98894
G1 X40.773 Y30.155 E7.00344
G1 X41.446 Y30.428 E7.01793
G1 X42.085 Y30.773 E7.03242
G1 X42.682 Y31.187 E7.04692
G1 X43.23 Y31.663 E7.06141
G1 X43.723 Y32.197 E7.07591
G1 X44.153 Y32.782 E7.0904
G1 X44.517 Y33.411 E7.1049
G1 X44.81 Y34.076 E7.1194
G1 X45.028 Y34.769 E7.1339
G1 X45.168 Y35.481 E7.14838
G1 X45.232 Y36.398 E7.16673
G1 X45.232 Y63.398 E7.70554
G1 X45.192 Y64.123 E7.72003
G1 X45.073 Y64.84 E7.73453
G1 X44.875 Y65.539 E7.74903
G1 X44.602 Y66.212 E7.76353
G1 X44.257 Y66.851 E7.77802
G1 X43.843 Y67.448 E7.79252
G1 X43.367 Y67.996 E7.807
G1 X42.833 Y68.489 E7.82151
G1 X42.248 Y68.919 E7.83599
G1 X41.619 Y69.283 E7.8505
G1 X40.954 Y69.576 E7.865
G1 X40.261 Y69.794 E7.8795
G1 X39.549 Y69.934 E7.89398
G1 X38.632 Y69.998 E7.91232
G1 X32.624 Y69.998 E8.03222
G1 X31.899 Y69.958 E8.04671
G1 X31.182 Y69.839 E8.06121
G1 X30.483 Y69.641 E8.07571
G1 X29.81 Y69.368 E8.0902
G1 X29.171 Y69.023 E8.1047
G1 X28.574 Y68.609 E8.11919
G1 X28.026 Y68.133 E8.13368
G1 X27.533 Y67.599 E8.14818
G1 X27.103 Y67.014 E8.16267
G1 X26.739 Y66.385 E8.17717
G1 X26.446 Y65.72 E8.19168
G1 X26.228 Y65.027 E8.20617
G1 X26.088 Y64.315 E8.22065
G1 X26.024 Y63.398 E8.239
G1 X26.023 Y36.398 E8.77781
G1 X26.063 Y35.673 E8.7923
G1 X26.182 Y34.957 E8.80679
G1 X26.38 Y34.257 E8.8213
G1 X26.653 Y33.584 E8.8358
G1 X26.998 Y32.945 E8.85029
G1 X27.412 Y32.348 E8.86479
G1 X27.888 Y31.8 E8.87927
G0 F6000 X28.282 Y31.971
G1 F1200 X28.812 Y31.508 E8.89332
G1 X29.391 Y31.107 E8.90737
G1 X30.012 Y30.775 E8.92143
G1 X30.666 Y30.515 E8.93547
G1 X31.345 Y30.331 E8.94951
G1 X32.041 Y30.225 E8.96356
G1 X32.623 Y30.198 E8.97519
G1 X38.632 Y30.198 E9.0951
G1 X39.335 Y30.238 E9.10915
G1 X40.029 Y30.357 E9.12321
G1 X40.704 Y30.555 E9.13724
G1 X41.353 Y30.827 E9.15129
G1 X41.967 Y31.172 E9.16534
G1 X42.538 Y31.583 E9.17938
G1 X43.059 Y32.057 E9.19344
G1 X43.523 Y32.587 E9.20749
G1 X43.923 Y33.166 E9.22154
G1 X44.255 Y33.787 E9.23559
G1 X44.515 Y34.441 E9.24964
G1 X44.699 Y35.121 E9.26369
G1 X44.805 Y35.817 E9.27774
G1 X44.832 Y36.398 E9.28935
G1 X44.832 Y63.398 E9.82816
G1 X44.792 Y64.101 E9.84222
G1 X44.673 Y64.795 E9.85627
G1 X44.475 Y65.47 E9.87031
G1 X44.203 Y66.119 E9.88435
G1 X43.858 Y66.733 E9.8984
G1 X43.447 Y67.304 E9.91244
G1 X42.973 Y67.825 E9.9265
G1 X42.443 Y68.289 E9.94056
G1 X41.864 Y68.689 E9.9546
G1 X41.243 Y69.021 E9.96865
G1 X40.589 Y69.281 E9.9827
G1 X39.909 Y69.465 E9.99676
G1 X39.213 Y69.571 E10.01081
G1 X38.632 Y69.598 E10.02241
G1 X32.624 Y69.598 E10.14231
G1 X31.921 Y69.558 E10.15636
G1 X31.227 Y69.439 E10.17041
G1 X30.552 Y69.241 E10.18445
G1 X29.903 Y68.969 E10.19849
G1 X29.289 Y68.624 E10.21255
G1 X28.718 Y68.213 E10.22659
G1 X28.197 Y67.739 E10.24064
G1 X27.733 Y67.209 E10.2547
G1 X27.333 Y66.63 E10.26875
G1 X27.001 Y66.009 E10.2828
G1 X26.741 Y65.355 E10.29684
G1 X26.557 Y64.675 E10.3109
G1 X26.451 Y63.979 E10.32495
G1 X26.424 Y63.398 E10.33656
G1 X26.423 Y36.398 E10.87537
G1 X26.463 Y35.695 E10.88942
G1 X26.582 Y35.002 E10.90346
G1 X26.78 Y34.326 E10.91751
G1 X27.052 Y33.677 E10.93156
G1 X27.397 Y33.063 E10.94561
G1 X27.808 Y32.492 E10.95965
G1 X28.282 Y31.971 E10.97371
G0 F6000 X28.675 Y32.149
G1 F1200 X29.201 Y31.715 E10.98731
G1 X29.773 Y31.347 E11.00089
G1 X30.385 Y31.047 E11.01449
G1 X31.027 Y30.822 E11.02807
G1 X31.691 Y30.673 E11.04165
G1 X32.623 Y30.598 E11.0603
G1 X38.632 Y30.598 E11.18022
G1 X39.312 Y30.638 E11.19381
G1 X39.982 Y30.757 E11.20739
G1 X40.634 Y30.954 E11.22099
G1 X41.258 Y31.226 E11.23457
G1 X41.846 Y31.57 E11.24817
G1 X42.39 Y31.98 E11.26176
G1 X42.881 Y32.451 E11.27534
G1 X43.315 Y32.976 E11.28893
G1 X43.684 Y33.548 E11.30251
G1 X43.983 Y34.16 E11.31611
G1 X44.208 Y34.802 E11.32968
G1 X44.357 Y35.467 E11.34328
G1 X44.432 Y36.398 E11.36192
G1 X44.432 Y63.398 E11.90074
G1 X44.392 Y64.078 E11.91433
G1 X44.273 Y64.748 E11.92791
G1 X44.076 Y65.4 E11.9415
G1 X43.804 Y66.024 E11.95509
G1 X43.46 Y66.612 E11.96868
G1 X43.05 Y67.156 E11.98228
G1 X42.579 Y67.647 E11.99585
G1 X42.054 Y68.081 E12.00945
G1 X41.482 Y68.45 E12.02303
G1 X40.87 Y68.749 E12.03662
G1 X40.228 Y68.974 E12.0502
G1 X39.563 Y69.123 E12.0638
G1 X38.632 Y69.198 E12.08244
G1 X32.624 Y69.198 E12.20233
G1 X31.944 Y69.158 E12.21593
G1 X31.274 Y69.039 E12.22951
G1 X30.622 Y68.842 E12.2431
G1 X29.998 Y68.57 E12.25668
G1 X29.41 Y68.226 E12.27028
G1 X28.866 Y67.816 E12.28387
G1 X28.375 Y67.345 E12.29745
G1 X27.941 Y66.82 E12.31104
G1 X27.572 Y66.248 E12.32463
G1 X27.273 Y65.636 E12.33822
G1 X27.048 Y64.994 E12.3518
G1 X26.899 Y64.329 E12.3654
G1 X26.824 Y63.398 E12.38404
G1 X26.823 Y36.398 E12.92285
G1 X26.863 Y35.719 E12.93642
G1 X26.982 Y35.048 E12.95002
G1 X27.179 Y34.396 E12.96362
G1 X27.451 Y33.772 E12.9772
G1 X27.795 Y33.184 E12.9908
G1 X28.205 Y32.641 E13.00437
G1 X28.675 Y32.149 E13.01795
G0 F6000 X29.068 Y32.334
G1 F1200 X29.588 Y31.932 E13.03107
G1 X30.152 Y31.596 E13.04417
G1 X30.754 Y31.332 E13.05729
G1 X31.383 Y31.142 E13.0704
G1 X32.03 Y31.031 E13.0835
G1 X32.623 Y30.998 E13.09535
G1 X38.632 Y30.998 E13.21527
G1 X39.288 Y31.038 E13.22838
G1 X39.934 Y31.157 E13.24149
G1 X40.561 Y31.354 E13.25461
G1 X41.159 Y31.626 E13.26772
G1 X41.72 Y31.968 E13.28083
G1 X42.235 Y32.376 E13.29394
G1 X42.697 Y32.843 E13.30705
G1 X43.098 Y33.363 E13.32016
G1 X43.434 Y33.927 E13.33326
G1 X43.698 Y34.529 E13.34637
G1 X43.888 Y35.158 E13.35949
G1 X43.999 Y35.805 E13.37259
G1 X44.032 Y36.398 E13.38444
G1 X44.032 Y63.398 E13.92325
G1 X43.992 Y64.054 E13.93637
G1 X43.873 Y64.7 E13.94948
G1 X43.676 Y65.327 E13.96259
G1 X43.404 Y65.925 E13.9757
G1 X43.062 Y66.486 E13.98882
G1 X42.654 Y67.001 E14.00193
G1 X42.187 Y67.463 E14.01504
G1 X41.667 Y67.864 E14.02814
G1 X41.103 Y68.2 E14.04124
G1 X40.501 Y68.464 E14.05436
G1 X39.872 Y68.654 E14.06747
G1 X39.225 Y68.765 E14.08057
G1 X38.632 Y68.798 E14.09242
G1 X32.624 Y68.798 E14.21232
G1 X31.968 Y68.758 E14.22544
G1 X31.322 Y68.639 E14.23855
G1 X30.695 Y68.442 E14.25166
G1 X30.097 Y68.17 E14.26477
G1 X29.536 Y67.828 E14.27788
G1 X29.021 Y67.42 E14.29099
G1 X28.559 Y66.953 E14.3041
G1 X28.158 Y66.433 E14.31721
G1 X27.822 Y65.869 E14.33031
G1 X27.558 Y65.267 E14.34343
G1 X27.368 Y64.638 E14.35654
G1 X27.257 Y63.991 E14.36964
G1 X27.224 Y63.398 E14.38149
G1 X27.223 Y36.398 E14.92031
G1 X27.263 Y35.742 E14.93342
G1 X27.382 Y35.096 E14.94653
G1 X27.579 Y34.47 E14.95963
G1 X27.851 Y33.871 E14.97276
G1 X28.193 Y33.311 E14.98585
G1 X28.6 Y32.795 E14.99897
G1 X29.068 Y32.334 E15.01207
G0 F6000 X28.996 Y32.957
G1 F1200 X29.459 Y32.527 E15.02468
G1 X29.972 Y32.158 E15.0373
G1 X30.529 Y31.858 E15.04992
G1 X31.118 Y31.63 E15.06252
G1 X31.732 Y31.478 E15.07515
G1 X32.623 Y31.398 E15.093
G1 X38.632 Y31.398 E15.21292
G1 X39.263 Y31.438 E15.22553
G1 X39.884 Y31.557 E15.23815
G1 X40.484 Y31.754 E15.25075
G1 X41.056 Y32.025 E15.26339
G1 X41.588 Y32.365 E15.27598
G1 X42.073 Y32.771 E15.28861
G1 X42.503 Y33.234 E15.30122
G1 X42.872 Y33.748 E15.31384
G1 X43.172 Y34.304 E15.32645
G1 X43.4 Y34.893 E15.33906
G1 X43.552 Y35.507 E15.35168
G1 X43.632 Y36.398 E15.36953
G1 X43.632 Y63.398 E15.90835
G1 X43.592 Y64.029 E15.92096
G1 X43.473 Y64.65 E15.93358
G1 X43.276 Y65.25 E15.94618
G1 X43.005 Y65.822 E15.95881
G1 X42.665 Y66.354 E15.97141
G1 X42.259 Y66.839 E15.98404
G1 X41.796 Y67.269 E15.99665
G1 X41.282 Y67.638 E16.00927
G1 X40.726 Y67.938 E16.02188
G1 X40.137 Y68.166 E16.03449
G1 X39.523 Y68.318 E16.04711
G1 X38.632 Y68.398 E16.06496
G1 X32.624 Y68.398 E16.18486
G1 X31.993 Y68.358 E16.19747
G1 X31.372 Y68.239 E16.21009
G1 X30.772 Y68.042 E16.22269
G1 X30.2 Y67.771 E16.23533
G1 X29.668 Y67.431 E16.24793
G1 X29.183 Y67.025 E16.26055
G1 X28.753 Y66.562 E16.27316
G1 X28.384 Y66.048 E16.28578
G1 X28.084 Y65.492 E16.29839
G1 X27.856 Y64.903 E16.311
G1 X27.704 Y64.289 E16.32362
G1 X27.624 Y63.398 E16.34147
G1 X27.623 Y36.398 E16.88029
G1 X27.663 Y35.767 E16.8929
G1 X27.782 Y35.147 E16.9055
G1 X27.979 Y34.546 E16.91812
G1 X28.25 Y33.975 E16.93074
G1 X28.59 Y33.442 E16.94335
G1 X28.996 Y32.957 E16.95598
G0 F6000 X29.39 Y33.126
G1 F1200 X29.848 Y32.729 E16.96807
G1 X30.355 Y32.396 E16.98018
G1 X30.901 Y32.133 E16.99227
G1 X31.477 Y31.943 E17.00437
G1 X32.073 Y31.831 E17.01648
G1 X32.623 Y31.798 E17.02747
G1 X38.632 Y31.798 E17.14739
G1 X39.237 Y31.838 E17.15949
G1 X39.831 Y31.957 E17.17158
G1 X40.405 Y32.153 E17.18368
G1 X40.948 Y32.424 E17.19579
G1 X41.451 Y32.763 E17.2079
G1 X41.904 Y33.165 E17.21998
G1 X42.301 Y33.623 E17.23208
G1 X42.634 Y34.13 E17.24418
G1 X42.898 Y34.676 E17.25629
G1 X43.087 Y35.252 E17.26838
G1 X43.199 Y35.848 E17.28049
G1 X43.232 Y36.398 E17.29148
G1 X43.232 Y63.398 E17.8303
G1 X43.192 Y64.003 E17.8424
G1 X43.073 Y64.597 E17.85449
G1 X42.877 Y65.171 E17.86659
G1 X42.606 Y65.714 E17.8787
G1 X42.267 Y66.217 E17.89081
G1 X41.865 Y66.67 E17.90289
G1 X41.407 Y67.067 E17.91499
G1 X40.9 Y67.4 E17.92709
G1 X40.354 Y67.664 E17.9392
G1 X39.778 Y67.853 E17.95129
G1 X39.182 Y67.965 E17.96339
G1 X38.632 Y67.998 E17.97439
G1 X32.624 Y67.998 E18.09429
G1 X32.019 Y67.958 E18.10639
G1 X31.425 Y67.839 E18.11848
G1 X30.851 Y67.643 E18.13058
G1 X30.308 Y67.372 E18.14269
G1 X29.805 Y67.033 E18.1548
G1 X29.352 Y66.631 E18.16688
G1 X28.955 Y66.173 E18.17898
G1 X28.622 Y65.666 E18.19108
G1 X28.358 Y65.12 E18.20319
G1 X28.169 Y64.544 E18.21528
G1 X28.057 Y63.948 E18.22738
G1 X28.024 Y63.398 E18.23838
G1 X28.023 Y36.398 E18.77719
G1 X28.063 Y35.793 E18.78929
G1 X28.182 Y35.199 E18.80138
